icons/microsoft-line.svg

<svg viewBox="0 0 24 24" fill="currentColor" xmlns="http://www.w3.org/2000/svg">
    <path d="M11.001 5H5.00098V11H11.001V5ZM13.001 5V11H19.001V5H13.001ZM19.001 13H13.001V19H19.001V13ZM11.001 19V13H5.00098V19H11.001ZM3.00098 3H21.001V21H3.00098V3Z"/>
</svg>

<svg xmlns="http://www.w3.org/2000/svg" viewBox="0 0 24 24">
    <g>
        <path fill="none" d="M0 0h24v24H0z"/>
        <path d="M11 5H5v6h6V5zm2 0v6h6V5h-6zm6 8h-6v6h6v-6zm-8 6v-6H5v6h6zM3 3h18v18H3V3z"/>
    </g>
</svg>
